X:2053
T:Bourrées Carrées de la Châtre
R:Bourrée
C:Trad.
O:France
Z:Paul Hardy's Session Tunebook 2022 (see www.paulhardy.net). Creative Commons cc by-nc-sa licenced.
M:2/4
L:1/8
Q:1/4=120
K:G
T:Ruban Bleu, Le
"G" d2 BG|"D" F>G AB|"D7" c2 AF|"G" G>A Bc|"G" d2 BG|"D" F>G AB|"D7" c2 AF|"G"G4:|
|:"D" F>A FA|"G" G>B GB|"D" A>c Ac|"G" B2 G2|"D" F>A FA|"G" G>B GB|"D7" d>c BA|"G"G4:|
T:En Passant la Rivière
|:"G"G>A Bc|d2d2|"C"e>f ge|"G"d>c BA|G>A Bc|d2d2|"C"e>f ge|"G"d3 d:|
|:"G"B>G Bd|"Am"c>B AB|"D7"c>B ce|"G"d>c Bd|"G"B>GBd|"Am"c/2d/2c/2B/2 AB|"D7"c>d ef|"G"g3 d:|

